symbols/web/directions_subway/materialsymbolsoutlined/directions_subway_wght200_20px.svg

<svg xmlns="http://www.w3.org/2000/svg" height="20" width="20"><path d="M5.312 16.208v-.375L6.562 15q-1 0-1.697-.698-.698-.698-.698-1.698V5q0-1.333 1.364-1.917Q6.896 2.5 10 2.5q3.125 0 4.479.583 1.354.584 1.354 1.917v7.604q0 1-.698 1.698-.697.698-1.697.698l1.25.833v.375Zm-.229-7.187h4.459V5.542H5.083Zm8.355.917H5.083h9.834H13.438Zm-2.98-.917h4.459V5.542h-4.459Zm-3.312 3.937q.416 0 .687-.27.271-.271.271-.688 0-.417-.271-.688-.271-.27-.687-.27-.417 0-.688.27-.27.271-.27.688 0 .417.27.688.271.27.688.27Zm5.708 0q.417 0 .688-.27.27-.271.27-.688 0-.417-.27-.688-.271-.27-.688-.27-.416 0-.687.27-.271.271-.271.688 0 .417.271.688.271.27.687.27Zm-6.292 1.104h6.876q.583 0 1.031-.437.448-.437.448-1.021V9.938H5.083v2.666q0 .584.448 1.021.448.437 1.031.437ZM10 3.417q-2.146 0-3.302.302-1.156.302-1.49.906h9.604q-.27-.625-1.427-.917-1.156-.291-3.385-.291Zm0 1.208H14.812 5.208 10Z"/></svg>

<svg xmlns="http://www.w3.org/2000/svg" height="20" width="20"><path d="M5.312 16.208V15.833L6.562 15Q5.562 15 4.865 14.302Q4.167 13.604 4.167 12.604V5Q4.167 3.667 5.531 3.083Q6.896 2.5 10 2.5Q13.125 2.5 14.479 3.083Q15.833 3.667 15.833 5V12.604Q15.833 13.604 15.135 14.302Q14.438 15 13.438 15L14.688 15.833V16.208ZM5.083 9.021H9.542V5.542H5.083ZM13.438 9.938H6.562Q5.979 9.938 5.531 9.938Q5.083 9.938 5.083 9.938H14.917Q14.917 9.938 14.469 9.938Q14.021 9.938 13.438 9.938ZM10.458 9.021H14.917V5.542H10.458ZM7.146 12.958Q7.562 12.958 7.833 12.688Q8.104 12.417 8.104 12Q8.104 11.583 7.833 11.312Q7.562 11.042 7.146 11.042Q6.729 11.042 6.458 11.312Q6.188 11.583 6.188 12Q6.188 12.417 6.458 12.688Q6.729 12.958 7.146 12.958ZM12.854 12.958Q13.271 12.958 13.542 12.688Q13.812 12.417 13.812 12Q13.812 11.583 13.542 11.312Q13.271 11.042 12.854 11.042Q12.438 11.042 12.167 11.312Q11.896 11.583 11.896 12Q11.896 12.417 12.167 12.688Q12.438 12.958 12.854 12.958ZM6.562 14.062H13.438Q14.021 14.062 14.469 13.625Q14.917 13.188 14.917 12.604V9.938H5.083V12.604Q5.083 13.188 5.531 13.625Q5.979 14.062 6.562 14.062ZM10 3.417Q7.854 3.417 6.698 3.719Q5.542 4.021 5.208 4.625H14.812Q14.542 4 13.385 3.708Q12.229 3.417 10 3.417ZM10 4.625Q12.229 4.625 13.385 4.625Q14.542 4.625 14.812 4.625H5.208Q5.542 4.625 6.698 4.625Q7.854 4.625 10 4.625Z"/></svg>
